X: 740
T: Old French
B: jims roots
M:4/4
L:1/8
R: reel
Q: 1/4=100
K:Dmaj
V:1 
%Z: fidicen
%S: <a href="http://thesession.org/tunes/1296#setting1296" rel="nofollow">http://thesession.org/tunes/1296#setting1296</a>
|:(3ABc|"D"d2cd BdAF|DFAd f2ed|"A"cdef gece|"D"defd "A"A2(3ABc|
"D"d2cd BdAF|DFAd f2ed|"A"cdef gece|"D"d2f2 d2:|
|:cd|"A"efed c2A2|AEAc e2dc|"G"BGBd gfed|"A"cAce a2cd|
"A"efed (3cdc A2|AEAc e2dc|"G"BGBd gfed|"A"c2A2 A2:||
% abcbook-tune_id 6298c279ee1c010d903df3c4


% abcbook-boost 0
% abcbook-tablature 
% abcbook-transpose 
% abcbook-lastupdated 1654178425869
% abcbook-soundfonts 
% abcbook-repeats 1


